!!!COA:	Josquin des Prez
!!!CDT:	~1450-1521/08/27
!!!OTL@@LAT: Ave mundi spes Maria
!!!OTL2@@LAT: Ave gemma
!!!OTL3@@LAT: O castitatis lilium
!!!AGN:	Motet
!!!SCT:	NJE 23.10
!!!SCA:	New Josquin Edition 23.10
!!!voices:	4
**kern	**kern	**kern	**kern
*staff4	*staff3	*staff2	*staff1
*Ivox	*Ivox	*Ivox	*Ivox
*I"Bassus	*I"Tenor	*I"Altus	*I"Superius
*I'B	*I'T	*I'A	*I'S
*>[A,B,C]	*>[A,B,C]	*>[A,B,C]	*>[A,B,C]
*>Part1[A]	*>Part1[A]	*>Part1[A]	*>Part1[A]
*>Part2[B]	*>Part2[B]	*>Part2[B]	*>Part2[B]
*>Part3[C]	*>Part3[C]	*>Part3[C]	*>Part3[C]
*clefF4	*clefGv2	*clefGv2	*clefG2
*>A	*>A	*>A	*>A
*k[]	*k[]	*k[]	*k[]
*M2/1	*M2/1	*M2/1	*M2/1
*met(C|)	*met(C|)	*met(C|)	*met(C|)
!!section: Prima pars
!!!OMD: Prima pars
=1-	=1-	=1-	=1-
1r	1D	0r	0r
1GG	1G	.	.
=2	=2	=2	=2
1C	1G	0r	0r
1C	[1A	.	.
=3	=3	=3	=3
0D	1A]	0r	0r
.	1B	.	.
=4	=4	=4	=4
1E	1c	0r	0r
1F	[1d	.	.
=5	=5	=5	=5
0G	1d]	0r	0r
.	[1d	.	.
=6	=6	=6	=6
0G	2d\]	0r	0r
.	2e\	.	.
.	2d\	.	.
.	[2e\	.	.
=7	=7	=7	=7
1r	2e\]	0r	0r
.	4d\	.	.
.	4c\	.	.
1G	1B	.	.
=8	=8	=8	=8
1.F	1r	0r	0r
.	1d	.	.
4E\	.	.	.
4D\	.	.	.
=9	=9	=9	=9
1E	1.c	0r	0r
1F	.	.	.
.	4B\	.	.
.	4A/	.	.
=10	=10	=10	=10
1G	1B	0r	0r
2E\	1c	.	.
[2F\	.	.	.
=11	=11	=11	=11
4F\]	1d	0r	0r
4E\	.	.	.
4D\	.	.	.
4C/	.	.	.
1D	1B	.	.
=12	=12	=12	=12
0C	1.c	0r	0r
.	4B\	.	.
.	4A/	.	.
=13	=13	=13	=13
1r	2G/	0r	0r
.	2B\	.	.
1D	1A	.	.
=14	=14	=14	=14
1.E-	0G	0r	0r
4D\	.	.	.
4C/	.	.	.
=15	=15	=15	=15
1E-i	1r	0r	0r
[1D	1A	.	.
=16	=16	=16	=16
1D]	1.B-	0r	0r
1GG	.	.	.
.	4A/	.	.
.	4G/	.	.
=17	=17	=17	=17
1r	1B-i	0r	0r
1D	1A	.	.
=18	=18	=18	=18
1E-	2.G/	0r	0r
.	4E-i/	.	.
1D	4F/	.	.
.	4G/	.	.
.	[2A/	.	.
=19	=19	=19	=19
2C/	2A/]	0r	0r
2BB-i/	1G	.	.
1AA	.	.	.
.	2F#i/	.	.
=20	=20	=20	=20
00GG	00G	00r	00r
=21	=21	=21	=21
0r	0r	1r	1d
.	.	1G	1g
=22	=22	=22	=22
0r	0r	1c	1g
.	.	1c	[1a
=23	=23	=23	=23
0r	0r	0d	1a]
.	.	.	1b
=24	=24	=24	=24
0r	0r	1e	1cc
.	.	1f	[1dd
=25	=25	=25	=25
0r	0r	0g	1dd]
.	.	.	[1dd
=26	=26	=26	=26
0r	0r	0g	2dd\]
.	.	.	2ee\
.	.	.	2dd\
.	.	.	[2ee\
=27	=27	=27	=27
0r	0r	1r	2ee\]
.	.	.	4dd\
.	.	.	4cc\
.	.	1g	1b
=28	=28	=28	=28
0r	0r	1.f	1r
.	.	.	1dd
.	.	4e\	.
.	.	4d\	.
=29	=29	=29	=29
0r	0r	1e	1.cc
.	.	1f	.
.	.	.	4b\
.	.	.	4a/
=30	=30	=30	=30
0r	0r	1g	1b
.	.	2e\	1cc
.	.	[2f\	.
=31	=31	=31	=31
0r	0r	4f\]	1dd
.	.	4e\	.
.	.	4d\	.
.	.	4c\	.
.	.	1d	1b
=32	=32	=32	=32
0r	0r	0c	1.cc
.	.	.	4b\
.	.	.	4a/
=33	=33	=33	=33
0r	0r	1r	2g/
.	.	.	2b\
.	.	1d	1a
=34	=34	=34	=34
0r	0r	1.e-	0g
.	.	4d\	.
.	.	4c\	.
=35	=35	=35	=35
0r	0r	1e-i	1r
.	.	1d	1a
=36	=36	=36	=36
0r	0r	4d\	1.b-i
.	.	4c\	.
.	.	4B-i\	.
.	.	4A/	.
.	.	1G	.
.	.	.	4a/
.	.	.	4g/
=37	=37	=37	=37
0r	1r	2r	1b-i
.	.	1g	.
.	1d	.	1a
.	.	2f\	.
=38	=38	=38	=38
0r	1.e-	2g\	2.g/
.	.	2c\	.
.	.	.	4a/
.	.	1g	2b-i\
.	4d\	.	[2cc\
.	4c\	.	.
=39	=39	=39	=39
0r	1e-i	1c	4cc\]
.	.	.	4b-i\
.	.	.	4a/
.	.	.	4g/
.	1d	2r	2f/
.	.	2f\	[2a/
=40	=40	=40	=40
1r	2c\	2e-i\	2a/]
.	2B-i\	2.d\	1g
1D	1A	.	.
.	.	4c\	.
.	.	2d\	2f#i/
=41	=41	=41	=41
1.E-	2.G/	2B-i\	0g
.	.	2c\	.
.	4A/	.	.
.	2B-i\	1G	.
4D\	[2c\	.	.
4C/	.	.	.
=42	=42	=42	=42
1E-i	4c\]	0r	0r
.	4B-i\	.	.
.	4A/	.	.
.	4G/	.	.
1D	2F/	.	.
.	[2A/	.	.
=43	=43	=43	=43
2C/	4A/]	0r	0r
.	4G/	.	.
2BB-i/	1G	.	.
1AA	.	.	.
.	2F#i/	.	.
=44	=44	=44	=44
0GG	0G	1r	0r
.	.	1d	.
=45	=45	=45	=45
0r	0r	1B	1g
.	.	1c	1e
=46	=46	=46	=46
0r	0r	1A	1f
.	.	2r	1d
.	.	[2d\	.
=47	=47	=47	=47
0r	0r	2d\]	2r
.	.	2c\	1g
.	.	2.d\	.
.	.	.	2f/
.	.	4f\	.
=48	=48	=48	=48
1r	0r	4e\	2g/
.	.	4d\	.
.	.	1g	2b-i\
1D	.	.	1a
.	.	2f#i\	.
=49	=49	=49	=49
1BB	1G	0g	0g
1C	1E	.	.
=50	=50	=50	=50
1AA	1F	0r	0r
2r	1D	.	.
[2D\	.	.	.
=51	=51	=51	=51
2D\]	2r	0r	0r
2C/	1G	.	.
2.D\	.	.	.
.	2F/	.	.
4F\	.	.	.
=52	=52	=52	=52
4E\	2G/	0r	0r
4D\	.	.	.
1G	2B-i\	.	.
.	1A	.	.
2F#i\	.	.	.
=53	=53	=53	=53
0G	1G	1r	0r
.	1d	2r	.
.	.	[2G/	.
=54	=54	=54	=54
1C	1e	2G/]	1g
.	.	1c	.
1F	1c	.	1a
.	.	[2A/	.
=55	=55	=55	=55
1D	1d	2A/]	1f
.	.	2.B\	.
1E	1B	.	2.g/
.	.	4G/	.
.	.	2G/	.
.	.	.	4f/
=56	=56	=56	=56
1C	2.c\	1e	2e/
.	.	.	1g
.	4B\	.	.
1D	1A	1d	.
.	.	.	2f#i/
=57	=57	=57	=57
0GG	[0G	0B	0g
=58	=58	=58	=58
0C	0G]	1r	1g
.	.	1c	1e
=59	=59	=59	=59
0r	0r	1A	1f
.	.	1B	1d
=60	=60	=60	=60
0r	0r	1G	2r
.	.	.	1g
.	.	2r	.
.	.	2d\	2f/
=61	=61	=61	=61
0r	0r	2e\	2g/
.	.	1g	2b-i\
.	.	.	1a
.	.	2f#i\	.
=62	=62	=62	=62
1r	1G	0g	0g
1C	1E	.	.
=63	=63	=63	=63
1AA	1F	0r	0r
1BB	1D	.	.
=64	=64	=64	=64
1GG	2r	0r	0r
.	1G	.	.
2r	.	.	.
2D\	2F/	.	.
=65	=65	=65	=65
2E\	2G/	0r	0r
1G	2B-i\	.	.
.	1A	.	.
2F#i\	.	.	.
=66	=66	=66	=66
1G	1G	1d	2r
.	.	.	1g
1C	2r	1e	.
.	[2c\	.	[2a/
=67	=67	=67	=67
1F	2c\]	2c\	2a/]
.	2A/	2.f\	1f
2D\	1d	.	.
.	.	4e\	.
[2G\	.	4d\	[2b-\
.	.	4c\	.
=68	=68	=68	=68
4G\]	2B\	2d\	4b-\]
4F\	.	.	4a/
4E\	2.c\	2.e\	4g/
4D\	.	.	4f/
2C/	.	.	2g/
.	4B\	4d\	.
[2F\	4A/	4c\	[2a/
.	4G/	4B\	.
=69	=69	=69	=69
2F\]	2F/	1c	4a/]
.	.	.	4g/
2E\	2G/	.	1g
1D	1A	1d	.
.	.	.	2f#i/
=70	=70	=70	=70
[0GG	[0G	1.B	0g
.	.	2G/	.
=71	=71	=71	=71
0GG]	0G]	1G	0r
.	.	[1g	.
=72	=72	=72	=72
0r	0r	1g]	0dd
.	.	[1f	.
=73	=73	=73	=73
0r	0r	2f\]	1.cc
.	.	4e\	.
.	.	4d\	.
.	.	2e\	.
.	.	2f\	4b\
.	.	.	4a/
=74	=74	=74	=74
0r	0r	1d	1b
.	.	1c	[1cc
=75	=75	=75	=75
0r	0r	1e	2cc\]
.	.	.	2b\
.	.	1f	1a
=76	=76	=76	=76
0r	0r	2.g\	4g/
.	.	.	4a/
.	.	.	4b\
.	.	4e\	4cc\
.	.	2f\	2dd\
.	.	2g\	[2ee\
=77	=77	=77	=77
0r	0r	2.d\	4ee\]
.	.	.	4dd\
.	.	.	1dd
.	.	4f\	.
.	.	1e	.
.	.	.	2cc#i\
=78	=78	=78	=78
0r	0r	1d	1dd
.	.	1G	1r
=79	=79	=79	=79
0r	0r	2r	1g
.	.	1c	.
.	.	.	1a
.	.	[2d\	.
=80	=80	=80	=80
0r	0r	2d\]	1b
.	.	1e	.
.	.	.	1cc
.	.	[2f\	.
=81	=81	=81	=81
0r	0r	2f\]	2.dd\
.	.	2.g\	.
.	.	.	4b\
.	.	.	2cc\
.	.	4e\	.
.	.	2f\	2dd\
=82	=82	=82	=82
0r	0r	2g\	1g
.	.	1c	.
.	.	.	2a/
.	.	2d\	2b\
=83	=83	=83	=83
0r	0r	2e\	2.cc\
.	.	2.f\	.
.	.	.	4b\
.	.	.	4a/
.	.	4e\	4g/
.	.	4d\	[2a/
.	.	4c\	.
=84	=84	=84	=84
0r	0r	2B\	4a/]
.	.	.	4g/
.	.	2c\	1g
.	.	1A	.
.	.	.	2f#i/
=85	=85	=85	=85
1r	0r	0G	0g
[1G	.	.	.
=86	=86	=86	=86
1G]	0d	0r	0r
[1F	.	.	.
=87	=87	=87	=87
2F\]	1.c	0r	0r
4E\	.	.	.
4D\	.	.	.
2E\	.	.	.
2F\	4B\	.	.
.	4A/	.	.
=88	=88	=88	=88
1D	1B	0r	0r
1C	[1c	.	.
=89	=89	=89	=89
1E	2c\]	0r	0r
.	2B\	.	.
1F	1A	.	.
=90	=90	=90	=90
2.G\	4G/	0r	0r
.	4A/	.	.
.	4B\	.	.
4E\	4c\	.	.
2F\	2d\	.	.
2G\	[2e\	.	.
=91	=91	=91	=91
2.D\	4e\]	0r	0r
.	4d\	.	.
.	1d	.	.
4F\	.	.	.
1E	.	.	.
.	2c#i\	.	.
=92	=92	=92	=92
1D	1d	0r	0r
1GG	1r	.	.
=93	=93	=93	=93
2r	1G	0r	0r
1C	.	.	.
.	1A	.	.
[2D\	.	.	.
=94	=94	=94	=94
2D\]	1B	0r	0r
1E	.	.	.
.	1c	.	.
[2F\	.	.	.
=95	=95	=95	=95
2F\]	2.d\	0r	0r
2.G\	.	.	.
.	4B\	.	.
.	2c\	.	.
4E\	.	.	.
2F\	2d\	.	.
=96	=96	=96	=96
2G\	1G	0r	0r
1C	.	.	.
.	2A/	.	.
2D\	2B\	.	.
=97	=97	=97	=97
2E\	2.c\	0r	0r
2.F\	.	.	.
.	4B\	.	.
.	4A/	.	.
4E\	4G/	.	.
4D\	[2A/	.	.
4C/	.	.	.
=98	=98	=98	=98
2BB/	4A/]	0r	0r
.	4G/	.	.
2C/	1G	.	.
1AA	.	.	.
.	2F#i/	.	.
=99	=99	=99	=99
[0GG	[0G	0r	0r
=100	=100	=100	=100
0GG]	0G]	1r	3%4gV
.	.	1G	.
.	.	.	[3%2ddZ
=101	=101	=101	=101
0r	0r	1g	3%2dd]V
.	.	.	3%2ee
.	.	1a	.
.	.	.	3%2ccZ
=102	=102	=102	=102
0r	0r	1f	3%4ddV
.	.	2g\	.
.	.	.	3%2bZ
.	.	2d\	.
=103	=103	=103	=103
0r	0r	2.f\	3%2aV
.	.	.	3%4ccZ
.	.	4g\	.
.	.	1e	.
=104	=104	=104	=104
1r	3%4GV	0d	0dd
1GG	.	.	.
.	[3%2dZ	.	.
=105	=105	=105	=105
1G	3%2d]V	1B	1g
.	3%2e	.	.
1A	.	1c	1e
.	3%2cZ	.	.
=106	=106	=106	=106
1F	3%4dV	1A	1f
2G\	.	1d	1d
.	3%2BZ	.	.
2D\	.	.	.
=107	=107	=107	=107
2.F\	3%2AV	2.c\	2.a/
.	3%4cZ	.	.
4G\	.	4B\	4g/
1E	.	1G	[1g
=108	=108	=108	=108
1D	0d	1A	2g/]
.	.	.	2f#i/
1G	.	2r	1g
.	.	2G/	.
=109	=109	=109	=109
1F	1r	2A/	0r
.	.	2.c\	.
1E	1e	.	.
.	.	4B\	.
.	.	2G/	.
=110	=110	=110	=110
1D	1f	2d\	0r
.	.	2A/	.
1C	1e	1c	.
=111	=111	=111	=111
0G	1d	2B\	0r
.	.	2G/	.
.	1G	1g	.
=112	=112	=112	=112
0G	1B	1g	0r
.	[1d	1g	.
=113	=113	=113	=113
[0D	1d]	[0f	0r
.	1d	.	.
=114	=114	=114	=114
0D]	1r	0f]	0r
.	1d	.	.
=115	=115	=115	=115
1G	1B	0r	0r
2E\	1c	.	.
[2F\	.	.	.
=116	=116	=116	=116
4F\]	2.A/	0r	0r
4E\	.	.	.
4D\	.	.	.
4C/	4G/	.	.
1D	2A/	.	.
.	[2B\	.	.
=117	=117	=117	=117
2BB/	4B\]	0r	0r
.	4A/	.	.
2C/	1G	.	.
1AA	.	.	.
.	2F#i/	.	.
=118	=118	=118	=118
0GG	0G	1r	1r
.	.	2r	1dd
.	.	[2g\	.
=119	=119	=119	=119
0r	0r	2g\]	1b
.	.	1e	.
.	.	.	2.cc\
.	.	[2f\	.
.	.	.	4b\
=120	=120	=120	=120
1r	1d	4f\]	4a/
.	.	4e\	4g/
.	.	2f\	2a/
1G	1B	2d\	2.b\
.	.	[2e\	.
.	.	.	4a/
=121	=121	=121	=121
2E\	2.c\	2e\]	2g/
2.F\	.	2c\	1a
.	4B\	.	.
.	4A/	1f	.
4E\	4G/	.	.
2D\	[2A/	.	4f/
.	.	.	4g/
=122	=122	=122	=122
2C/	2A/]	2e\	2a/
2BB/	1G	2d\	2b\
1AA	.	2c\	1cc
.	2F#i/	2A/	.
=123	=123	=123	=123
0GG	0G	1B	1b
.	.	1r	2r
.	.	.	[2dd\
=124	=124	=124	=124
0r	0r	1g	2dd\]
.	.	.	1dd
.	.	1g	.
.	.	.	[2ee\
=125	=125	=125	=125
0r	0r	1a	2ee\]
.	.	.	1cc
.	.	1f	.
.	.	.	[2dd\
=126	=126	=126	=126
0r	0r	1.g	2dd\]
.	.	.	2.b\
.	.	.	4g/
.	.	2f\	2a/
=127	=127	=127	=127
0r	0r	2.d\	2b\
.	.	.	1dd
.	.	4f\	.
.	.	1e	.
.	.	.	2cc#i\
=128	=128	=128	=128
0r	1r	0d	0dd
.	2r	.	.
.	[2d\	.	.
=129	=129	=129	=129
1G	2d\]	0r	0r
.	1d	.	.
1G	.	.	.
.	[2e\	.	.
=130	=130	=130	=130
1A	2e\]	0r	0r
.	1c	.	.
1F	.	.	.
.	[2d\	.	.
=131	=131	=131	=131
1.G	2d\]	0r	0r
.	2.B\	.	.
.	4G/	.	.
2F\	2A/	.	.
=132	=132	=132	=132
2.D\	2B\	0r	0r
.	1d	.	.
4F\	.	.	.
1E	.	.	.
.	2c#i\	.	.
=133	=133	=133	=133
*M3/1	*M3/1	*M3/1	*M3/1
*met(3)	*met(3)	*met(3)	*met(3)
1D	0d	1A	0dd
1G	.	1B	.
1F	1r	1A	1dd
=134	=134	=134	=134
0E	0e	0G	0cc
1D	1f	[1d	1a
=135	=135	=135	=135
0G	1d	2d\]	0b
.	.	2c\	.
.	1.e	1B	.
1F	.	1A	1cc
.	2d\	.	.
=136	=136	=136	=136
1D	1d	1B	1dd
0E	1G	0G	1b
.	1B	.	1g
=137	=137	=137	=137
0.D	0d	0.A	0.dd
.	1d	.	.
=138	=138	=138	=138
1r	0d	0.r	0.r
0G	.	.	.
.	1B	.	.
=139	=139	=139	=139
1E	1c	0.r	0.r
1F	1.A	.	.
[1D	.	.	.
.	2G/	.	.
=140	=140	=140	=140
2D\]	1A	0.r	0.r
2C/	.	.	.
1D	1F	.	.
1BB	1G	.	.
=141	=141	=141	=141
1C	0.G	0.r	0.r
0GG	.	.	.
=142	=142	=142	=142
0.r	0.r	1r	0dd
.	.	0g	.
.	.	.	1b
=143	=143	=143	=143
0.r	0.r	1e	1cc
.	.	1f	1.a
.	.	[1d	.
.	.	.	2g/
=144	=144	=144	=144
0.r	0.r	2d\]	1a
.	.	2c\	.
.	.	1d	1f
.	.	1B	1g
=145	=145	=145	=145
0.r	0.r	1c	0.g
.	.	0G	.
=146	=146	=146	=146
0G	0d	1r	0dd
.	.	0g	.
1G	1d	.	1b
=147	=147	=147	=147
1A	1c	1e	1cc
1.D	1d	1f	1.a
.	1B	[1d	.
2E\	.	.	2g/
=148	=148	=148	=148
1F	0A	2d\]	1a
.	.	2c\	.
1D	.	1d	1f
1E	[1G	1B	1g
=149	=149	=149	=149
0.C	1G]	1c	[0.gl
.	0e	0c	.
=150	=150	=150	=150
0.Gl	0.dl	0.Bl	0.g]
!!LO:LB:i:g=z
=151||	=151||	=151||	=151||
*>B	*>B	*>B	*>B
!!section: Secunda pars: Ave gemma
!!!OMD: Secunda pars: Ave gemma
*M2/1	*M2/1	*M2/1	*M2/1
*met(C|)	*met(C|)	*met(C|)	*met(C|)
0r	0r	0r	0a
=152	=152	=152	=152
0r	0r	0r	1b
.	.	.	[1dd
=153	=153	=153	=153
0r	0r	0d	1dd]
.	.	.	1dd
=154	=154	=154	=154
0r	0r	1e	1cc
.	.	[1g	[1b
=155	=155	=155	=155
0r	0r	1g]	2b\]
.	.	.	4a/
.	.	.	4g/
.	.	1g	1b
=156	=156	=156	=156
0r	0r	1f	2.a/
.	.	.	4b\
.	.	1e	4cc\
.	.	.	4dd\
.	.	.	[2ee\
=157	=157	=157	=157
0r	0r	1.g	2ee\]
.	.	.	2dd\
.	.	.	2b\
.	.	2f\	[2dd\
=158	=158	=158	=158
0r	0r	2d\	2dd\]
.	.	2e\	2.cc\
.	.	[1f	.
.	.	.	4b\
.	.	.	4a/
.	.	.	4g/
=159	=159	=159	=159
0r	1r	2f\]	4a/
.	.	.	4d/
.	.	2d\	1dd
.	1A	1e	.
.	.	.	2cc#i\
=160	=160	=160	=160
0r	1B	0d	0dd
.	[1d	.	.
=161	=161	=161	=161
0D	1d]	0r	0r
.	1d	.	.
=162	=162	=162	=162
1E	1c	0r	0r
[1G	[1B	.	.
=163	=163	=163	=163
1G]	2B\]	0r	0r
.	4A/	.	.
.	4G/	.	.
1G	1B	.	.
=164	=164	=164	=164
1F	2.A/	0r	0r
.	4B\	.	.
1E	4c\	.	.
.	4d\	.	.
.	[2e\	.	.
=165	=165	=165	=165
1.G	2e\]	0r	0r
.	2d\	.	.
.	2B\	.	.
2F\	[2d\	.	.
=166	=166	=166	=166
2D\	2d\]	0r	0r
2E\	2.c\	.	.
[1F	.	.	.
.	4B\	.	.
.	4A/	.	.
.	4G/	.	.
=167	=167	=167	=167
2F\]	4A/	0r	0r
.	4D/	.	.
2D\	1d	.	.
1E	.	.	.
.	2c#i\	.	.
=168	=168	=168	=168
0D	0d	0r	1r
.	.	.	1dd
=169	=169	=169	=169
0r	0r	1g	2.b\
.	.	.	4a/
.	.	1e	2b\
.	.	.	[2cc\
=170	=170	=170	=170
0r	0r	1f	2cc\]
.	.	.	2.dd\
.	.	[1g	.
.	.	.	4cc\
.	.	.	4b\
.	.	.	4a/
=171	=171	=171	=171
0r	1r	2g\]	1g
.	.	4f#i\	.
.	.	4e\	.
.	1d	1f#i	1a
=172	=172	=172	=172
1G	2.B\	0g	0g
.	4A/	.	.
1E	2B\	.	.
.	[2c\	.	.
=173	=173	=173	=173
1F	2c\]	0r	0r
.	2.d\	.	.
[1G	.	.	.
.	4c\	.	.
.	4B\	.	.
.	4A/	.	.
=174	=174	=174	=174
2G\]	1G	0r	0r
4F#i\	.	.	.
4E\	.	.	.
1F#i	1A	.	.
=175	=175	=175	=175
0G	1G	0r	0r
.	2r	.	.
.	[2d\	.	.
=176	=176	=176	=176
1r	2d\]	0r	0r
.	2.e\	.	.
1G	.	.	.
.	4d\	.	.
.	2B\	.	.
=177	=177	=177	=177
2.A\	2c\	0r	0r
.	4A/	.	.
4G\	4B\	.	.
2F\	4c\	.	.
.	4d\	.	.
2E\	[2e\	.	.
=178	=178	=178	=178
2F\	4e\]	0r	0r
.	4d\	.	.
2G\	1d	.	.
1E	.	.	.
.	2c#i\	.	.
=179	=179	=179	=179
1D	1d	0r	0r
2.GG/	2r	.	.
.	[2G/	.	.
4AA/	.	.	.
=180	=180	=180	=180
2BB/	2G/]	0r	0r
2C/	2A/	.	.
2D\	2B\	.	.
[2E\	[2c\	.	.
=181	=181	=181	=181
4E\]	4c\]	0r	0r
4D\	4B\	.	.
1G	4A/	.	.
.	4G/	.	.
.	1A	.	.
2F#i\	.	.	.
=182	=182	=182	=182
0G	0G	0r	1r
.	.	.	1dd
=183	=183	=183	=183
0r	0r	1g	2.b\
.	.	.	4a/
.	.	1e	2b\
.	.	.	[2cc\
=184	=184	=184	=184
0r	0r	1f	2cc\]
.	.	.	2.dd\
.	.	[1g	.
.	.	.	4cc\
.	.	.	4b\
.	.	.	4a/
=185	=185	=185	=185
0r	0r	2g\]	1g
.	.	4f#i\	.
.	.	4e\	.
.	.	1f#i	1a
=186	=186	=186	=186
0r	0r	0g	1g
.	.	.	2r
.	.	.	[2dd\
=187	=187	=187	=187
0r	0r	1r	2dd\]
.	.	.	2.ee\
.	.	1g	.
.	.	.	4dd\
.	.	.	2b\
=188	=188	=188	=188
0r	0r	2.a\	2cc\
.	.	.	4a/
.	.	4g\	4b\
.	.	2f\	4cc\
.	.	.	4dd\
.	.	2e\	[2ee\
=189	=189	=189	=189
0r	0r	2f\	4ee\]
.	.	.	4dd\
.	.	2g\	1dd
.	.	1e	.
.	.	.	2cc#i\
=190	=190	=190	=190
0r	0r	1d	1dd
.	.	2.G/	2r
.	.	.	[2g/
.	.	4A/	.
=191	=191	=191	=191
0r	0r	2B\	2g/]
.	.	2c\	2a/
.	.	2d\	2b\
.	.	[2e\	[2cc\
=192	=192	=192	=192
1r	0r	4e\]	4cc\]
.	.	4d\	4b\
.	.	1g	4a/
.	.	.	4g/
1D	.	.	1a
.	.	2f#i\	.
=193	=193	=193	=193
1E	0G	1g	0g
[1G	.	1r	.
=194	=194	=194	=194
1G]	0B	0d	0r
1G	.	.	.
=195	=195	=195	=195
2r	0c	1e	1a
2.C/	.	.	.
.	.	[1g	1cc
4D\	.	.	.
4E\	.	.	.
4F\	.	.	.
=196	=196	=196	=196
1G	1B	1g]	0dd
1G	1B	[1g	.
=197	=197	=197	=197
0D	1.d	1g]	0dd
.	.	1f	.
.	2c\	.	.
=198	=198	=198	=198
0r	1A	1e	1cc
.	1G	1g	1b
=199	=199	=199	=199
0r	0r	1d	1dd
.	.	2r	1g
.	.	2e\	.
=200	=200	=200	=200
0r	0r	1f	2r
.	.	.	2a/
.	.	1e	1b
=201	=201	=201	=201
0r	0r	1c	1a
.	.	2r	1f
.	.	2d\	.
=202	=202	=202	=202
0r	0r	1e	2r
.	.	.	2g/
.	.	1d	1a
=203	=203	=203	=203
0G	0r	1B	1g
.	.	[1d	1d
=204	=204	=204	=204
1F	0r	1d]	0r
[1E	.	1c	.
=205	=205	=205	=205
1E]	0r	2.B\	0r
.	.	4A/	.
1D	.	2B\	.
.	.	[2A/	.
=206	=206	=206	=206
2C/	0r	4A/]	0r
.	.	4G/	.
2BB/	.	1G	.
1AA	.	.	.
.	.	2F#i/	.
=207	=207	=207	=207
0GG	0g	0G	1r
.	.	.	[1dd
=208	=208	=208	=208
0r	1f	0r	1dd]
.	[1e	.	1cc
=209	=209	=209	=209
0r	1e]	0r	2.b\
.	.	.	4a/
.	1d	.	2b\
.	.	.	[2a/
=210	=210	=210	=210
0r	2c\	0r	4a/]
.	.	.	4g/
.	2B\	.	1g
.	1A	.	.
.	.	.	2f#i/
=211	=211	=211	=211
0r	1G	0r	0g
.	1r	.	.
=212	=212	=212	=212
*M3/1	*M3/1	*M3/1	*M3/1
*met(3)	*met(3)	*met(3)	*met(3)
0.r	1.G	0.r	1r
.	.	.	0d
.	2A/	.	.
.	1B	.	.
=213	=213	=213	=213
0.r	1c	0.r	1e
.	1c	.	1g
.	1B	.	1g
=214	=214	=214	=214
0.r	1.A	0.r	0f
.	2B\	.	.
.	1c	.	1e
=215	=215	=215	=215
1.G	1d	1r	0g
.	0G	1r	.
2A\	.	.	.
1B	.	1d	1d
=216	=216	=216	=216
1c	0.r	1e	0.r
1c	.	1g	.
1B	.	1g	.
=217	=217	=217	=217
1A	0.r	1f	0.r
1c	.	1e	.
1G	.	[1g	.
=218	=218	=218	=218
1A	0.r	2g\]	0.r
.	.	2f\	.
1B	.	1d	.
1A	.	1e	.
=219	=219	=219	=219
1F	0.r	1f	0.r
1G	.	1e	.
1A	.	1c	.
=220	=220	=220	=220
1G	0.r	1d	0.r
1E	.	1e	.
1r	.	1d	.
=221	=221	=221	=221
1.G	0d	1B	1r
.	.	1r	1r
2F\	.	.	.
1G	1B	1d	1g
=222	=222	=222	=222
1E	1c	1e	1g
1F	1A	1c	1f
1D	1F	1d	1a
=223	=223	=223	=223
1BB	1G	1d	1.g
1C	0A	1c	.
.	.	.	2e/
1D	.	1A	1f#i
=224	=224	=224	=224
0.GG	0.G	1B	1g
.	.	1G	1dd
.	.	1g	1b
=225	=225	=225	=225
0.r	0.r	1e	1cc
.	.	1f	1a
.	.	1d	1f
=226	=226	=226	=226
0.r	0.r	1B	1g
.	.	1c	0a
.	.	1d	.
=227	=227	=227	=227
1.G	0d	1G	0g
.	.	1r	.
2F\	.	.	.
1G	1B	1d	1g
=228	=228	=228	=228
1E	1c	1e	1g
1F	1A	1c	1f
1D	1F	1d	1a
=229	=229	=229	=229
1BB	1G	1d	1.g
1C	0A	1c	.
.	.	.	2e/
1D	.	1A	1f#i
=230	=230	=230	=230
0.GGl	0.Gl	0.Bl	0.gl
!!LO:LB:i:g=z
=231||	=231||	=231||	=231||
*>C	*>C	*>C	*>C
!!section: Tertia pars: O castiatis lilium
!!!OMD: Tertia pars: O castiatis lilium
*M2/1	*M2/1	*M2/1	*M2/1
*met(C|)	*met(C|)	*met(C|)	*met(C|)
0r	0r	1r	1.dd
.	.	[1g	.
.	.	.	2b\
=232	=232	=232	=232
0r	0r	2g\]	1b
.	.	2e\	.
.	.	1e	[1cc
=233	=233	=233	=233
0r	1r	1.f	2cc\]
.	.	.	2a/
.	[1d	.	1a
.	.	2d\	.
=234	=234	=234	=234
1.G	2d\]	1d	1.b
.	2B\	.	.
.	1B	[1e	.
2E\	.	.	2g/
=235	=235	=235	=235
1E	1.c	2e\]	1g
.	.	2c\	.
[1F	.	1c	[1a
.	2A/	.	.
=236	=236	=236	=236
2F\]	1A	1.d	2a/]
2D\	.	.	2f/
1D	[1B	.	1f
.	.	2B\	.
=237	=237	=237	=237
1.E	2B\]	1.B	1.g
.	2G/	.	.
.	1G	.	.
2C/	.	4c\	2e/
.	.	4d\	.
=238	=238	=238	=238
0C	1c	[0e	1.e
.	1r	.	.
.	.	.	2f/
=239	=239	=239	=239
1r	1.c	0e]	0g
[1C	.	.	.
.	2d\	.	.
=240	=240	=240	=240
2C/]	2e\	0r	0r
2D\	2f\	.	.
2E\	2g\	.	.
2F\	[2a\	.	.
=241	=241	=241	=241
1G	4a\]	0r	0r
.	4g\	.	.
.	1g	.	.
1A	.	.	.
.	2f#i\	.	.
=242	=242	=242	=242
0G	[0g	1r	1.g
.	.	[1G	.
.	.	.	2a/
=243	=243	=243	=243
0r	0g]	2G/]	2b\
.	.	2A/	2cc\
.	.	2B\	2dd\
.	.	2c\	[2ee\
=244	=244	=244	=244
0r	1r	1d	4ee\]
.	.	.	4dd\
.	.	.	1dd
.	1g	1e	.
.	.	.	2cc#\
=245	=245	=245	=245
0r	1a	0d	1dd
.	1f	.	2r
.	.	.	[2dd\
=246	=246	=246	=246
0r	1g	0r	2dd\]
.	.	.	1ee
.	2e\	.	.
.	[2f\	.	[2cc\
=247	=247	=247	=247
1r	4f\]	2r	2cc\]
.	4e\	.	.
.	2f\	1d	2.dd\
1G	1g	.	.
.	.	.	4b\
.	.	[2e\	2b\
=248	=248	=248	=248
1A	1c	2e\]	2.cc\
.	.	1c	.
.	.	.	4b\
1F	1f	.	1a
.	.	[2d\	.
=249	=249	=249	=249
1G	2d\	4d\]	1g
.	.	4B\	.
.	1e	2B\	.
2E\	.	2.c\	1r
[2F\	2c\	.	.
.	.	4B\	.
=250	=250	=250	=250
2F\]	2d\	4A/	1r
.	.	4G/	.
2E\	1c	1G	.
1D	.	.	1dd
.	2B\	2F/	.
=251	=251	=251	=251
0C	0c	1G	2.ee\
.	.	.	4dd\
.	.	2g\	2ee\
.	.	2a\	2cc\
=252	=252	=252	=252
0r	0r	2f\	2dd\
.	.	1g	2.b\
.	.	.	4a/
.	.	[2e\	2b\
=253	=253	=253	=253
1r	1r	4e\]	2.cc\
.	.	4d\	.
.	.	2e\	.
.	.	.	4b\
2r	1d	2f\	2a/
[2G\	.	2g\	2b\
=254	=254	=254	=254
2G\]	2.e\	0r	0r
2.A\	.	.	.
.	4d\	.	.
.	2e\	.	.
4G\	.	.	.
2A\	2c\	.	.
=255	=255	=255	=255
2F\	2d\	0r	0r
2G\	2.B\	.	.
2.E\	.	.	.
.	4A/	.	.
.	2B\	.	.
4D\	.	.	.
=256	=256	=256	=256
2E\	2c\	1r	1r
2F\	2d\	.	.
1G	1r	2r	2.dd\
.	.	[2g\	.
.	.	.	4b\
=257	=257	=257	=257
0r	0r	4g\]	2b\
.	.	4e\	.
.	.	2e\	2.cc\
.	.	2.f\	.
.	.	.	4a/
.	.	.	2a/
.	.	4d\	.
=258	=258	=258	=258
0r	0r	2d\	2.b\
.	.	2.e\	.
.	.	.	4g/
.	.	.	2g/
.	.	4c\	.
.	.	2c\	2r
=259	=259	=259	=259
0r	0r	2r	1g
.	.	1c	.
.	.	.	2a/
.	.	2d\	[2b\
=260	=260	=260	=260
0r	0r	1e	2b\]
.	.	.	2cc\
.	.	2f\	2dd\
.	.	2g\	[2ee\
=261	=261	=261	=261
0r	0r	2.a\	4ee\]
.	.	.	4dd\
.	.	.	4cc\
.	.	4g\	4b\
.	.	4f\	2cc\
.	.	4e\	.
.	.	2f\	2dd\
=262	=262	=262	=262
0r	0r	2g\	2r
.	.	2r	2dd\
.	.	2g\	2ee\
.	.	2a\	2cc\
=263	=263	=263	=263
2r	2d\	2f\	2dd\
2G\	2e\	2g\	2b\
2A\	2c\	2e\	4cc\
.	.	.	4b\
2F\	2d\	4f\	4a/
.	.	4e\	4g/
=264	=264	=264	=264
2G\	2B\	4d\	1g
.	.	4c\	.
2E\	2c\	1c	.
2F\	2A/	.	2r
2G\	2G/	2B\	2dd\
=265	=265	=265	=265
1C	2g\	1c	2ee\
.	2a\	.	2cc\
1r	2f\	1r	2dd\
.	2g\	.	2b\
=266	=266	=266	=266
0r	2.e\	1r	2cc\
.	.	.	2.a/
.	4d\	.	.
.	2e\	2r	.
.	.	.	4g/
.	2f\	[2d\	2a/
=267	=267	=267	=267
1G	1g	2d\]	1g
.	.	2e\	.
2A\	1r	2c\	1r
2F\	.	2d\	.
=268	=268	=268	=268
2G\	0r	2.B\	0r
2.E\	.	.	.
.	.	4A/	.
.	.	2B\	.
4D\	.	.	.
2E\	.	2c\	.
=269	=269	=269	=269
2F\	0r	0d	2r
2G\	.	.	2g/
2r	.	.	2a/
2D\	.	.	2f/
=270	=270	=270	=270
1E	0r	1G	1g
1F	.	1A	1cc
=271	=271	=271	=271
1G	2r	1B	1b
.	2G/	.	.
1D	2A/	1d	1r
.	2F/	.	.
=272	=272	=272	=272
1E	1G	2c\	1g
.	.	2B\	.
1F	1c	1A	1a
=273	=273	=273	=273
*	*M3/3%2	*	*
*	*met(3)	*	*
0G	3B\	0G	1b
.	3G/	.	.
.	3A/	.	.
.	3.B\	.	1dd
.	6c\	.	.
.	3d\	.	.
=274	=274	=274	=274
1r	3.e\	0r	2cc\
.	6f\	.	2b\
.	3g\	.	.
1D	3a\	.	1a
.	3.f#i\	.	.
.	6e\	.	.
=275	=275	=275	=275
*	*M2/1	*	*
*	*met(C|)	*	*
2.E\	0g	2.G/	1g
4F\	.	4A/	.
2G\	.	2B\	1r
4C/	.	[2c\	.
4D\	.	.	.
=276	=276	=276	=276
4E\	0r	2c\]	2.g/
4F\	.	.	.
1G	.	2B\	.
.	.	.	4a/
.	.	2G/	2b\
4F\	.	[2A/	[2cc\
4E\	.	.	.
=277	=277	=277	=277
2F\	0r	4A/]	2cc\]
.	.	4G/	.
2G\	.	2.G/	2b\
2E\	.	.	2g/
.	.	4E/	.
2D\	.	2F/	[2a/
=278	=278	=278	=278
1E	0r	1G	4a/]
.	.	.	4g/
.	.	.	1g
1D	.	1A	.
.	.	.	2f#i/
=279	=279	=279	=279
*M3/1	*M3/1	*M3/1	*M3/1
*met(3)	*met(3)	*met(3)	*met(3)
0.r	1d	0G	0g
.	1d	.	.
.	1c	1r	1r
=280	=280	=280	=280
1G	1B	0.r	0.r
1G	1G	.	.
1F	1A	.	.
=281	=281	=281	=281
1E	1B	1G	0.r
1C	1c	1G	.
1D	1A	1F	.
=282	=282	=282	=282
1.C	0c	0E	0.r
2BB/	.	.	.
1AA	1C	1F	.
=283	=283	=283	=283
1GG	1D	1G	0.r
1.C	1.E	1.A	.
2BB/	2D/	2G/	.
=284	=284	=284	=284
*M2/1	*M2/1	*M2/1	*M2/1
*met(C|)	*met(C|)	*met(C|)	*met(C|)
0GG	1D	0G	0r
.	1d	.	.
=285	=285	=285	=285
0r	1e	0r	1g
.	1c	.	1a
=286	=286	=286	=286
1D	1d	1r	1f
1E	1r	1G	1g
=287	=287	=287	=287
1C	0r	1A	0r
1D	.	1F	.
=288	=288	=288	=288
1r	2d\	1G	2r
.	2e\	.	2g/
2r	2c\	1r	2a/
2D\	2d\	.	2f/
=289	=289	=289	=289
2E\	2B\	2G/	2g/
2C/	2c\	2A/	2e/
2D\	2A/	2F/	2f/
2r	2G/	[2G/	2d/
=290	=290	=290	=290
0r	1r	2G/]	1e
.	.	2A/	.
.	2d\	2B\	1r
.	2e\	[2c\	.
=291	=291	=291	=291
2r	2c\	2c\]	2r
2G\	2d\	2B\	2b\
2A\	1r	1A	2cc\
2F\	.	.	2a/
=292	=292	=292	=292
2G\	2B\	1G	2b\
2E\	2c\	.	2g/
2F\	2A/	2r	2a/
2G\	2G/	2d\	2b\
=293	=293	=293	=293
1C	1g	2e\	1cc
.	.	2c\	.
1G	1g	2d\	1r
.	.	2r	.
=294	=294	=294	=294
2r	2r	2d\	2r
2G\	2g\	2e\	2b\
2A\	2e\	2c\	2cc\
2F\	2f\	2d\	2a/
=295	=295	=295	=295
2G\	2d\	2B\	2b\
2E\	2g\	2c\	2g/
2F\	2f\	2A/	2a/
2G\	2d\	2G/	2b\
=296	=296	=296	=296
0C	1.e	1.c	1cc
.	.	.	1r
.	2c\	2A/	.
=297	=297	=297	=297
1.F	1c	0A	1r
.	2r	.	[1a
2D\	[2d\	.	.
=298	=298	=298	=298
[0D;l	4d\]	0d	1a]
.	4c\	.	.
.	2A/	.	.
.	1B-	.	1f
=299	=299	=299	=299
0D]	0A;	0d;	0f;
=300	=300	=300	=300
0GG	0G	0d	0g
=301	=301	=301	=301
0GGl	0Gl	0dl	0gl
==	==	==	==
*-	*-	*-	*-
!!!RDF**kern: l=long note in original notation
!!!RDF**kern: i=editorial accidental
!!!ENC:	Joel Chapman 2011/7/13; Victoria Chang 2011/08/08
!!!END:	2011/08/08/
!!!EED:	Jesse Rodin
!!!EEV:	2011/10/18/
!!attribution-level@Jos: 4 (questionable)
!!!ONB:	Translated from MusicXML and edited on 2011/10/18/ by Craig Sapp
!!muse2ps: u^(2) @{OTL2} (3) @{OTL3}^C^@{COA}?\n@{SCT}^v90,90,90,90,90,150i2I150c80Q16
